!!!OTL: GLAUBT MIRS DOCH
!!!ARE: Europa, Mitteleuropa, Deutschland
!!!SCT: E1099
!!!YEM: Copyright 1995, estate of Helmut Schaffrath.
**kern
*ICvox
*Ivox
*M3/4
*k[f#]
*G:
{8d
8d
=1
4.g
8g
8a
8a
=2
4b
4g}
{8g
8b
=3
4dd
4b
8cc
8a
=4
2g}
{8d
8d
=5
4.g
8g
8a
8a
=6
4b
4g}
{8g
8b
=7
4dd
4b
8cc
8a
=8
2g}
{8f#
8g
=9
4a
4a
8b
8cc#
=10
4dd
4a}
{8a
8a
=11
4.gg
8a
8b
8cc#
=12
8dd
8cc#
8dd
8b}
{8cc
8a
=13
4.g
8g
8a
8a
=14
4b
4g}
{8g
8b
=15
4.dd
8b
8cc
8a
=16
2g}
==
!!!AGN: Wunsch - Lied, Luegen - Maerchen
!!!ONB: ESAC (Essen Associative Code) Database: ERK3
!!!AMT: simple triple
!!!AIN: vox
!!!EED: Helmut Schaffrath
!!!EEV: 1.0
*-
